X:1
T:Chicken on a Raft
M:4/4
L:1/16
K:G
 EE EE E2F2 G2A2 B4| E4 B,2 z2 EE EE E2B2| B2B2 BB AA GG FF E4| E4 B,2 z2 EE EE E2|\
 B2-| B2B2 B2G2 A2G2 A4| E4 B,2 z2 EE EE E2| B2| BB BB B2A2 G2F2 E4|\
 E4 B,2 z2 EE EE E2| z2| EE EE E2 B,B, E2F2 G2A2| B2 BB BB A2G2 F2E2|\
 z E| B2B2 BB BB A2G2 A4|
M:2/4
 z8|
M:4/4
 BB AA GG FF EE EE E2 z2| E4 B,2 z2 EE EE E2 z2| G4 E2 z2 EE EE E2 z2|\
 E4 B,2 z2 EE EE E2 z2| G4 E2 z2 EE EE E2 z2|
